www/src/assets/icons/featured-sites.svg

<svg
    width="1em"
    height="1em"
    viewBox="0 0 24 24"
    xmlns="http://www.w3.org/2000/svg"
    focusable="false"
  >
    <path
      fillRule="evenodd"
      clipRule="evenodd"
      d="M10.875 18.875L9 23L7.125 18.875L3 17L7.125 15.125L9 11L10.875 15.125L15 17L10.875 18.875Z"
      fill="currentColor"
    />
    <path
      fillRule="evenodd"
      clipRule="evenodd"
      d="M19.2533 12.2533L18 15L16.7467 12.2533L14 11L16.7467 9.74667L18 7L19.2533 9.74667L22 11L19.2533 12.2533Z"
      fill="currentColor"
    />
    <path
      fillRule="evenodd"
      clipRule="evenodd"
      d="M11.94 5.94L11 8L10.06 5.94L8 5L10.06 4.06L11 2L11.94 4.06L14 5L11.94 5.94Z"
      fill="currentColor"
    />
  </svg>
)

<svg width="1em" height="1em" viewBox="0 0 24 24" xmlns="http://www.w3.org/2000/svg" focusable="false">
  <path d="M10.875 18.875L9 23l-1.875-4.125L3 17l4.125-1.875L9 11l1.875 4.125L15 17l-4.125 1.875zm8.378-6.622L18 15l-1.253-2.747L14 11l2.747-1.253L18 7l1.253 2.747L22 11l-2.747 1.253zM11.94 5.94L11 8l-.94-2.06L8 5l2.06-.94L11 2l.94 2.06L14 5l-2.06.94z" fill="currentColor"/>
</svg>
